archdroid-icon-theme/Archdroid-LightBlue/apps/scalable/empathy.svg

<svg xmlns="http://www.w3.org/2000/svg" viewBox="0 0 48 48" fill="#03A9F4"><path d="m8 4c-2.21 0-3.98 1.79-3.98 4l-.02 36 8-8h28c2.21 0 4-1.79 4-4v-24c0-2.21-1.79-4-4-4h-32m16 4a12 12 0 0 1 12 12 12 12 0 0 1 -12 12 12 12 0 0 1 -12 -12 12 12 0 0 1 12 -12m0 2a10 10 0 0 0 -10 10 10 10 0 0 0 10 10 10 10 0 0 0 10 -10 10 10 0 0 0 -10 -10m-4 4a2 2 0 0 1 2 2 2 2 0 0 1 -2 2 2 2 0 0 1 -2 -2 2 2 0 0 1 2 -2m8 0a2 2 0 0 1 2 2 2 2 0 0 1 -2 2 2 2 0 0 1 -2 -2 2 2 0 0 1 2 -2m-10.701 8h13.406a7 7 0 0 1 -6.705078 5 7 7 0 0 1 -6.701172 -5"/></svg>

<?xml version="1.0" encoding="UTF-8" standalone="no"?>
<svg
   xmlns:dc="http://purl.org/dc/elements/1.1/"
   xmlns:cc="http://creativecommons.org/ns#"
   xmlns:rdf="http://www.w3.org/1999/02/22-rdf-syntax-ns#"
   xmlns:svg="http://www.w3.org/2000/svg"
   xmlns="http://www.w3.org/2000/svg"
   xmlns:sodipodi="http://sodipodi.sourceforge.net/DTD/sodipodi-0.dtd"
   xmlns:inkscape="http://www.inkscape.org/namespaces/inkscape"
   width="48"
   height="48"
   viewBox="0 0 48 48"
   id="svg2"
   version="1.1"
   inkscape:version="0.91 r13725"
   sodipodi:docname="empathy.svg"
   style="fill:#03A9F4">
  <metadata
     id="metadata10">
    <rdf:RDF>
      <cc:Work
         rdf:about="">
        <dc:format>image/svg+xml</dc:format>
        <dc:type
           rdf:resource="http://purl.org/dc/dcmitype/StillImage" />
        <dc:title />
      </cc:Work>
    </rdf:RDF>
  </metadata>
  <defs
     id="defs8" />
  <sodipodi:namedview
     pagecolor="#ffffff"
     bordercolor="#666666"
     borderopacity="1"
     objecttolerance="10"
     gridtolerance="10"
     guidetolerance="10"
     inkscape:pageopacity="0"
     inkscape:pageshadow="2"
     inkscape:window-width="1366"
     inkscape:window-height="713"
     id="namedview6"
     showgrid="false"
     inkscape:snap-bbox="true"
     inkscape:bbox-nodes="true"
     inkscape:zoom="5.348394209876103"
     inkscape:cx="3.270542349953644"
     inkscape:cy="9.236106947742904"
     inkscape:window-x="0"
     inkscape:window-y="30"
     inkscape:window-maximized="1"
     inkscape:current-layer="svg2"
     fit-margin-top="0"
     fit-margin-left="0"
     fit-margin-right="0"
     fit-margin-bottom="0" />
  <path
     d="M 8 4 C 5.79 4 4.019531250000001 5.789999999999999 4.01953125 8 L 4 44 L 12 36 L 40 36 C 42.21 36 44 34.21 44 32 L 44 8 C 44 5.79 42.21 4 40 4 L 8 4 z M 24 8 A 12 12 0 0 1 36 20 A 12 12 0 0 1 24 32 A 12 12 0 0 1 12 20 A 12 12 0 0 1 24 8 z M 24 10 A 10 10 0 0 0 14 20 A 10 10 0 0 0 24 30 A 10 10 0 0 0 34 20 A 10 10 0 0 0 24 10 z M 20 14 A 2 2 0 0 1 22 16 A 2 2 0 0 1 20 18 A 2 2 0 0 1 18 16 A 2 2 0 0 1 20 14 z M 28 14 A 2 2 0 0 1 30 16 A 2 2 0 0 1 28 18 A 2 2 0 0 1 26 16 A 2 2 0 0 1 28 14 z M 17.298828125 22 L 30.705078125 22 A 7.000000000000001 7.000000000000001 0 0 1 24 27 A 7.000000000000001 7.000000000000001 0 0 1 17.298828125 22 z "
     id="path4200" />
</svg>
